src/img/icons/facebook.svg

<!-- Generated by IcoMoon.io -->
<svg version="1.1" xmlns="http://www.w3.org/2000/svg" width="1024" height="1024" viewBox="0 0 1024 1024">
<title></title>
<g id="icomoon-ignore">
</g>
<path fill="#000" d="M789.333 7.716v162.032h-100.117c-79.401 0-94.361 36.375-94.361 88.181v116.84h188.723l-25.314 181.873h-163.409v467.358h-196.78v-467.358h-163.408v-181.873h163.408v-134.476c0-155.418 100.116-240.293 245.112-240.293 69.044 0 128.884 4.409 146.147 7.716v0z"></path>
</svg>

<svg xmlns="http://www.w3.org/2000/svg" viewBox="0 0 1024 1024"><path d="M789.333 7.716v162.032H689.216c-79.401 0-94.361 36.375-94.361 88.181v116.84h188.723l-25.314 181.873H594.855V1024h-196.78V556.642H234.667V374.769h163.408V240.293C398.075 84.875 498.191 0 643.187 0c69.044 0 128.884 4.409 146.147 7.716z"/></svg>
